X: 4
T:Rattigan's
% Nottingham Music Database
S:Ireland, via PR
M:4/4
L:1/4
K:G
"G"GB/2G/2 D/2G/2B/2d/2|gf/2g/2 e/2d/2B/2A/2|"G"GB/2G/2 D/2G/2B/2G/2|\
"D7"A/2B/2A/2G/2 F/2D/2E/2F/2|
"G"GF "D7"E/2D/2B/2A/2|"G"G/2g/2f/2g/2 "D7"e/2d/2B/2A/2|\
"G"GB/2G/2 D/2G/2B/2d/2| [1"D7"c/2A/2F/2A/2 "G"G2:| [2"D7"c/2A/2F/2A/2 "G"G B/2c/2|
|:"G"d/2g/2g/2f/2 g/2f/2e/2d/2|"Am"e/2a/2a/2g/2 aa/2g/2|\
"D"f/2d/2d a/2d/2d|"D"f/2a/2a/2f/2 "D7"g/2e/2d/2c/2|
"G"B/2G/2G "C"E/2G/2D/2F/2|"G"G/2g/2f/2g/2 e/2d/2B/2A/2|GB/2G/2 D/2G/2B/2d/2|\
"D7"c/2A/2F/2A/2 "G"G2:|<end>
<start>
